X: 1
T:Crazy-Gnarls Barkley-Cyrano of Meneldor
M:4/4
L:1/8
Q:1/4=112
K:C
z8| 
[C/2-C,/2]C/2z [C/2-C,/2]C/2z [C/2-C,/2]C/2z [C/2-C,/2]C/2z| 
C3/2z/2 [c/2C/2]^A/2[c/2C/2]^A/2 [c2-C2] [c/2C/2-]C/2-[c/2C/2]^A/2|
[c/2C/2-][^A/2C/2-][c/2C/2-][^A/2C/2] [c/2C/2]^A/2[c/2C/2]^A/2 [cC-][^d-C] [^d/2C/2-]C/2-[f/2C/2-][g/2-C/2]| 
[g3/2-^D3/2]g/2- [g/2-^D/2]g/2-[g/2-^D/2]g/2- [g3/2-^D3/2]g/2 ^Dg/2[f/2^D/2]| 
[g/2^D/2-][f/2^D/2-][g/2^D/2-]^D/2 [g/2^D/2]g/2[g/2^D/2]g/2 ^D/2-[g^D-][f/2-^D/2] [f/2^D/2-][^d/2^D/2-][c-^D]| 
[c3/2-^G,3/2]c/2- [c/2-^G,/2]c/2-[c/2^G,/2]z/2 [c/2^G,/2-][c/2^G,/2-][c/2^G,/2]c/2 [^d/2^G,/2-][c/2^G,/2]c/2[c/2^G,/2]|
[^d/2^G,/2]z/2[c/2^G,/2]z/2 ^G,/2z/2^G,/2z/2 [c^G,-][^d/2-^G,/2]^d/2 ^G,-[f/2^G,/2-][=g/2-^G,/2]| 
[=g3/2-G,3/2]g/2- [g/2-G,/2]g/2-[g/2-G,/2]g/2- [g3/2G,3/2]z/2 G,-[g/2-G,/2][g/2-G,/2]| 
[g3/2-G,3/2]g/2- [g/2G,/2]f/2[g/2-G,/2]g/2- [g3/2-G,3/2]g/2- [g-G,][g-G,]| 
[g/2C/2-]C^A/2 [c/2C/2]^A/2[^A/2C/2]z/2 [c2C2] C/2-[^A/2C/2-][c/2C/2][^A/2C/2]|
[c3/2C3/2-]C/2 [c/2C/2]z/2[c/2C/2]^A/2 [c/2C/2-]C/2-[^dC] C-[g-C]| 
[g3/2-^D3/2]g/2- [g/2-^D/2]g/2-[g/2-^D/2]g/2- [g3/2^D3/2]z/2 ^D-[g/2^D/2][f/2^D/2]| 
[g/2^D/2-][g/2^D/2-][g/2^D/2-][g/2^D/2] ^D/2g/2[g/2^D/2]g/2 [g^D-][f/2^D/2]^d/2- [^d^D-][c/2-^D/2]c/2-| 
[c3/2-^G,3/2]c/2- [c/2-^G,/2]c/2-[c/2-^G,/2]c/2- [c3/2-^G,3/2]c/2- [c3/2-^G,3/2][c/2^G,/2]|
^G,/2z/2^G,/2z/2 ^G,/2c/2[c/2^G,/2]z/2 [^d/2^G,/2-]^G,/2-[f/2-^G,/2]f/2 ^G,-[=g-^G,]| 
[=g3/2-G,3/2]g/2- [g/2-G,/2]g/2-[g/2-G,/2]g/2- [g3/2-G,3/2]g/2 G,-[g/2-G,/2][g/2-G,/2]| 
[g3/2-G,3/2]g/2- [g/2-G,/2]g/2G,/2g/2 [g/2G,/2-]G,/2-[^a/2G,/2]z/2 [g/2C/2-]C/2-[c/2-C/2]c/2-| 
[c3/2-C3/2]c/2- [c/2C/2]z/2[c/2-C/2]c/2- [c2-C2] [c-C]c/2-[c/2-C/2]|
[c/2-C/2]c/2-[c/2-C/2]c/2- [c/2C/2]z/2C/2<g/2 [g/2C/2-]C/2-[^a/2C/2-]C/2 [c/2C/2-]C/2-[^a-C]| 
[^a3/2-^D3/2]^a/2- [^a/2^D/2]z/2[^a/2-^D/2]^a/2- [^a3/2-^D3/2]^a/2- [^a-^D]^a/2-[^a/2-^D/2]| 
[^a/2-^D/2]^a/2-[^a/2-^D/2]^a/2 ^D/2z/2^D/2g/2 [g/2^D/2-]^D/2-[^a/2^D/2-]^D/2 [g/2^D/2-]^D/2-[c-^D]| 
[c3/2-^G,3/2]c/2- [c/2^G,/2]z/2[c/2-^G,/2]c/2- [c3/2-^G,3/2]c/2- [c3/2-^G,3/2][c/2-^G,/2]|
[c/2-^G,/2]c/2-[c/2-^G,/2]c/2- [c/2-^G,/2]c/2-[c/2^G,/2]z/2 [^a3/2-^G,3/2]^a/2- [^a^G,-][^g/2-^G,/2]^g/2| 
[=gG,-][f/2-G,/2]f/2 [g/2-G,/2]g/2-[g/2-G,/2]g/2- [g3/2-G,3/2]g/2- [g/2G,/2-]G,/2f/2G,/2| 
[g/2-G,/2]g/2-[g/2-G,/2]g/2- [g/2-G,/2]g/2-[g/2-G,/2]g/2- [g/2-G,/2]g/2-[g/2-G,/2]g/2- [g/2-G,/2]g/2-[g/2-G,/2]g/2-| 
[g/2C/2-]Cz/2 C/2z/2[g/2C/2]g/2 [g/2C/2-]C/2-[f/2-C/2]f/2 [e/2C/2-]C/2f/2C/2|
[g3/2C3/2]z/2 [g/2-C/2]g/2[f/2C/2]g/2- [g/2C/2-]C/2-[g/2-C/2]g/2- [g/2C/2-][g-C]g/2| 
[f3/2-^G,3/2]f/2- [f/2^G,/2]z/2[=g/2^G,/2]f/2 [c3/2-^G,3/2]c/2- [c3/2-^G,3/2][c/2-^G,/2]| 
[c3/2-^G,3/2]c/2- [c/2-^G,/2]c/2-[c/2-^G,/2]c/2 ^G,3/2^d/2 [f^G,-][=g/2^G,/2]f/2| 
[^d3/2-^D3/2]^d/2- [^d/2-^D/2]^d/2-[^d/2-^D/2]^d/2- [^d3/2-^D3/2]^d/2- [^d3/2-^D3/2][^d/2-^D/2]|
[^d3/2^D3/2]z/2 ^D/2z/2[^d/2^D/2]^d/2 [^d/2^D/2-]^D/2-[^d/2^D/2]z/2 [f^D-][=g/2-^D/2]g/2-| 
[g3/2-G,3/2]g/2- [g/2-G,/2]g/2-[g/2-G,/2]g/2- [g3/2-G,3/2]g/2- [g3/2-G,3/2][g/2-G,/2]| 
[g3/2-G,3/2]g/2- [g/2-G,/2]g/2-[g/2-G,/2]g/2- [g3/2G,3/2]z/2 G,G,| 
C/2-[^A/2C/2-][c/2C/2]z/2 [c/2C/2]z/2[c/2C/2]^A/2 [c/2C/2-]C3/2 C-[c/2C/2][^A/2C/2]|
[c/2C/2-]C/2-[c/2C/2-][^A/2C/2] [c/2C/2]z/2[c/2C/2]^A/2 [c/2C/2-]C/2-[c/2C/2-]C/2 [^d/2C/2-]C/2-[g/2-C/2]g/2-| 
[g3/2-^D3/2]g/2- [g/2-^D/2]g/2-[g/2-^D/2]g/2- [g3/2-^D3/2]g/2- [g^D]z/2^D/2| 
[g/2^D/2-]^D/2-[g/2^D/2-]^D/2 [g/2^D/2]z/2^D/2z/2 [g/2^D/2-]^D/2-[g/2^D/2]z/2 [f/2^D/2-][^d/2^D/2-][c/2-^D/2]c/2-| 
[c3/2-^G,3/2]c/2- [c/2-^G,/2]c/2-[c/2-^G,/2]c/2- [c3/2-^G,3/2]c/2- [c-^G,]c/2^G,/2|
^G,/2z/2^G,/2c/2 [c/2^G,/2]^A/2[c/2^G,/2]z/2 [c/2^G,/2-]^G,/2-[^d/2^G,/2]z/2 [f/2^G,/2-]^G,/2-[=g-^G,]| 
[=g3/2-G,3/2]g/2- [g/2-G,/2]g/2-[g/2-G,/2]g/2- [g3/2-G,3/2]g/2- [g3/2-G,3/2][g/2-G,/2]| 
[g3/2G,3/2]z/2 G,/2z/2G,/2z/2 [gG,-][^a/2G,/2]z/2 [g/2C/2-]C/2-[c/2-C/2]c/2-| 
[c3/2-C3/2]c/2- [c/2C/2]z/2[c/2-C/2]c/2- [c2-C2] [c-C]c/2-[c/2-C/2]|
[c/2-C/2]c/2-[c/2-C/2]c/2 C/2z/2C/2z/2 [gC-][^a/2C/2-]C/2 [c/2C/2-]C/2-[^a-C]| 
[^a3/2-^D3/2]^a/2- [^a/2^D/2]z/2[^a/2-^D/2]^a/2- [^a3/2-^D3/2]^a/2- [^a-^D]^a/2-[^a/2-^D/2]| 
[^a/2-^D/2]^a/2-[^a/2-^D/2]^a/2 ^D/2z/2^D/2z/2 [g/2^D/2-]^D/2-[^a/2^D/2]z/2 [g/2^D/2-]^D/2-[c/2-^D/2]c/2-| 
[c3/2-^G,3/2]c/2- [c/2^G,/2]z/2[c/2-^G,/2]c/2- [c3/2-^G,3/2]c/2- [c3/2-^G,3/2][c/2-^G,/2]|
[c/2-^G,/2]c/2-[c/2-^G,/2]c/2- [c/2-^G,/2]c/2^G,/2z/2 [c^G,-][c/2-^G,/2]c/2- [c/2^G,/2-]^G,/2-[^g/2-^G,/2]^g/2| 
[=gG,-][f/2G,/2]z/2 [g/2-G,/2]g/2-[g/2-G,/2]g/2- [g3/2-G,3/2]g/2- [g/2G,/2-]G,/2f/2G,/2| 
[g-G,][g-G,] [g/2-G,/2]g/2-[g/2-G,/2]g/2- [g-G,][g-G,] [g-G,][g-G,]| 
[gC-]C/2z/2 C/2z/2[g/2C/2]z/2 [g/2C/2-]C/2-[f/2C/2]z/2 [e/2C/2-]C/2f/2[g/2-C/2]|
[g3/2-C3/2]g/2 C/2f/2[f/2C/2]g/2- [g/2C/2-]C/2-[g/2-C/2]g/2 C/2-[g-C]g/2| 
[f3/2-^G,3/2]f/2- [f/2^G,/2]z/2[=g/2^G,/2]f/2 [c3/2-^G,3/2]c/2- [c3/2-^G,3/2][c/2-^G,/2]| 
[c3/2-^G,3/2]c/2- [c/2-^G,/2]c/2^G,/2z/2 ^G,3/2c/2 [c/2^G,/2-][^d/2^G,/2-][=g/2^G,/2]=g/2-| 
[g^D-][^d/2-^D/2]^d/2- [^d/2-^D/2]^d/2-[^d/2-^D/2]^d/2- [^d3/2-^D3/2]^d/2- [^d/2^D/2-]^D/2-[c/2^D/2]^D/2|
[^d/2^D/2-]^D/2-[^d/2-^D/2]^d/2 ^D/2z/2[^d/2^D/2]^d/2 [^d/2^D/2-]^D/2-[^d/2^D/2]z/2 [f^D-][g/2-^D/2]g/2-| 
[g3/2-G,3/2]g/2- [g/2-G,/2]g/2-[g/2-G,/2]g/2- [g3/2-G,3/2]g/2- [g3/2-G,3/2][g/2-G,/2]| 
[g3/2-G,3/2]g/2- [g/2-G,/2]g/2-[g/2-G,/2]g/2- [g3/2G,3/2]z/2 G,G,| 
C-[c/2C/2]^A/2 [c/2C/2]z/2[c/2C/2]^A/2 [^d/2C/2-][cC]z/2 Cc/2[^A/2C/2]|
[c/2C/2-]C/2-[c/2C/2-][^A/2C/2] [c/2C/2]^A/2[c/2C/2]z/2 [^d/2C/2-]C/2-[f/2C/2-]C/2 C-[g/2C/2]f/2| 
[g3/2-^D3/2]g/2- [g/2-^D/2]g/2-[g/2-^D/2]g/2- [g3/2^D3/2]z/2 ^Dg/2[f/2^D/2]| 
[g/2^D/2-]^D/2-[f/2^D/2-][g/2^D/2] ^D/2g/2^D/2g/2 ^D/2-[g^D]f/2 ^D/2-[^d/2^D/2-][c/2-^D/2]c/2-| 
[c3/2-^G,3/2]c/2- [c/2-^G,/2]c/2-[c/2-^G,/2]c/2- [c3/2-^G,3/2]c/2- [c3/2-^G,3/2][c/2-^G,/2]|
[c/2^G,/2]z/2^G,/2z/2 ^G,/2^A/2[c/2^G,/2]^A/2 [c/2^G,/2-]^G,/2-[^A/2^G,/2]z/2 [^d/2^G,/2-]^G,/2-[=g-^G,]| 
[=g3/2-G,3/2]g/2- [g/2-G,/2]g/2-[g/2-G,/2]g/2- [g3/2-G,3/2]g/2- [g3/2-G,3/2][g/2-G,/2]| 
[g3/2G,3/2]z/2 G,/2z/2[g/2G,/2]z/2 [gG,-][^a/2G,/2]z/2 [g/2C/2-]C/2-[c-C]| 
[c3/2-C3/2]c/2- [c/2C/2]z/2[c/2-C/2]c/2- [c2-C2] [c-C]c/2-[c/2-C/2]|
[c/2-C/2]c/2-[c/2-C/2]c/2- [c/2C/2]z/2C/2z/2 [gC-][^a/2C/2-]C/2 [c/2C/2-]C/2-[^a-C]| 
[^a3/2-^D3/2]^a/2- [^a/2^D/2]z/2[^a/2-^D/2]^a/2- [^a3/2-^D3/2]^a/2- [^a-^D]^a/2-[^a/2-^D/2]| 
[^a/2-^D/2]^a/2-[^a/2^D/2]z/2 ^D/2z/2^D/2z/2 [g^D-][^a/2^D/2-]^D/2 [g/2^D/2-]^D/2-[c-^D]| 
[c3/2-^G,3/2]c/2- [c/2^G,/2]z/2[c/2-^G,/2]c/2- [c3/2-^G,3/2]c/2- [c3/2-^G,3/2][c/2-^G,/2]|
[c/2-^G,/2]c/2-[c/2-^G,/2]c/2- [c/2-^G,/2]c/2-[c/2^G,/2]z/2 [c3/2-^G,3/2]c/2- [c^G,-][^g/2-^G,/2]^g/2| 
[=gG,-][f/2G,/2]z/2 [g/2-G,/2]g/2-[g/2-G,/2]g/2- [g3/2-G,3/2]g/2- [g/2G,/2-]G,/2f/2G,/2| 
[g/2-G,/2]g/2-[g/2-G,/2]g/2- [g/2-G,/2]g/2-[g/2-G,/2]g/2- [g/2-G,/2]g/2-[g/2-G,/2]g/2- [g/2-G,/2]g/2-[g/2-G,/2]g/2-| 
[g/2C/2-]Cz/2 C/2z/2[f/2C/2]g/2- [g3/2-C3/2]g/2- [g3/2-C3/2]g/2-|
[g3/2-C3/2]g/2- [g/2-C/2]g/2-[g/2-C/2]g/2- [g3/2-C3/2]g/2- [g3/2C3/2]z/2| 
[f/2^G,/2-][^d/2^G,/2-][c/2^G,/2]^A/2 [c/2-^G,/2]c/2-[c/2-^G,/2]c/2- [c^G,-][^d/2^G,/2]c/2- [c3/2-^G,3/2][c/2-^G,/2]| 
[c3/2-^G,3/2]c/2- [c/2-^G,/2]c/2-[c/2^G,/2]z/2 [c^G,-][^d/2-^G,/2]^d/2- [^d^G,-][=g/2^G,/2]z/2| 
[f^D-][^d/2-^D/2]^d/2- [^d/2-^D/2]^d/2-[^d/2-^D/2]^d/2- [^d/2^D/2-]^D/2-[^a/2-^D/2]^a/2- [^a^D-][=g/2^D/2][f/2^D/2]|
[^d3/2-^D3/2]^d/2- [^d/2-^D/2]^d/2-[^d/2-^D/2]^d/2- [^d/2^D/2-]^D/2-[^d/2^D/2]z/2 [f/2^D/2-]^D/2-[g/2^D/2]z/2| 
[g3/2-G,3/2]g/2- [g/2-G,/2]g/2-[g/2-G,/2]g/2- [g3/2-G,3/2]g/2- [g/2G,/2-]G,/2-[f/2G,/2][g/2G,/2]| 
[g3/2-G,3/2]g/2- [g/2-G,/2]g/2-[g/2-G,/2]g/2 G,-[g/2-G,/2]g/2 [f/2-G,/2]f/2-[f/2-G,/2]f/2| 
[c3C3-][^d/2C/2-]C/2- [^A/2C/2-]C/2-[c3-C3-]|
[c8-C8-]|[c2C2] 
